images/googleplay.svg

<svg width="168" height="50" viewBox="0 0 168 50" fill="none" xmlns="http://www.w3.org/2000/svg">
<path d="M163.8 0H4.2C1.8804 0 0 1.86548 0 4.16667V45.8333C0 48.1345 1.8804 50 4.2 50H163.8C166.12 50 168 48.1345 168 45.8333V4.16667C168 1.86548 166.12 0 163.8 0Z" fill="#151515"/>
<path d="M34.944 20.293L16.2862 10.0707C15.757 9.78325 15.2698 9.7138 14.875 9.8388L30.156 25.061L34.944 20.2902" fill="url(#paint0_linear_9_628)"/>
<path fill-rule="evenodd" clip-rule="evenodd" d="M34.9678 29.8583L41.3378 26.3694C42.6286 25.6583 42.6286 24.5028 41.3378 23.7944L34.944 20.2944L30.156 25.0639L34.9678 29.8583Z" fill="url(#paint1_linear_9_628)"/>
<path d="M14.875 9.83887C14.3052 10.0139 13.937 10.5889 13.937 11.45L13.9426 38.7083C13.9426 39.5639 14.2982 40.1278 14.8498 40.3166L30.156 25.0639L14.875 9.83887Z" fill="url(#paint2_linear_9_628)"/>
<path d="M14.8499 40.3194C15.2475 40.4528 15.7459 40.3889 16.2863 40.0944L34.9651 29.8583L30.1561 25.0667L14.8499 40.3194Z" fill="url(#paint3_linear_9_628)"/>
<path fill-rule="evenodd" clip-rule="evenodd" d="M57.3607 8.44043C58.5367 8.44043 59.3515 8.96543 59.8807 9.50293L59.0547 10.4238C58.6291 10.014 58.1629 9.7321 57.3747 9.7321C55.8739 9.7321 54.8659 10.8849 54.8659 12.7654C54.8659 14.6738 55.7703 15.8265 57.4643 15.8265C57.9305 15.8265 58.3953 15.6988 58.6683 15.4543V13.6488H57.0751V12.4349H60.0109V16.121C59.4299 16.6585 58.4345 17.1182 57.2837 17.1182C55.0325 17.1182 53.3259 15.5835 53.3259 12.8057C53.3259 10.0654 55.0843 8.44043 57.3579 8.44043M65.5731 13.264C65.5731 12.2668 65.1489 11.6668 64.2823 11.6668C63.5319 11.6668 62.8851 12.2154 62.7563 13.264H65.5731ZM64.2431 10.5279C65.9623 10.5279 66.8681 11.7543 66.8681 13.5071C66.8681 13.7904 66.8401 14.0446 66.8037 14.1988H62.7689C62.8949 15.3377 63.6229 15.9793 64.6449 15.9793C65.1853 15.9793 65.6501 15.8127 66.1149 15.5182L66.6189 16.439C66.0127 16.8349 65.2511 17.1168 64.4489 17.1168C62.6891 17.1168 61.3199 15.9015 61.3199 13.8279C61.3213 11.7779 62.7563 10.5279 64.2431 10.5279ZM68.3171 11.8446H67.4141V10.7446L68.3969 10.6807L68.5789 8.96404H69.8193V10.6807H71.4349V11.8446H69.8193V14.839C69.8193 15.5807 70.1021 15.939 70.7111 15.939C70.9309 15.939 71.1899 15.8752 71.3691 15.8002L71.6295 16.8863C71.2795 17.0015 70.8399 17.1168 70.3359 17.1168C68.8617 17.1168 68.3199 16.1946 68.3199 14.839V11.8446H68.3171Z" fill="#E7E7E7"/>
<mask id="mask0_9_628" style="mask-type:luminance" maskUnits="userSpaceOnUse" x="51" y="7" width="106" height="39">
<path d="M51.5032 7.90283H156.422V45.1251H51.5032V7.90283Z" fill="#E7E7E7"/>
</mask>
<g mask="url(#mask0_9_628)">
<path fill-rule="evenodd" clip-rule="evenodd" d="M75.4208 10.6806H76.9076V16.9639H75.4208V10.6806ZM75.2528 8.74728C75.2528 8.24728 75.6406 7.90283 76.1698 7.90283C76.7018 7.90283 77.0868 8.25005 77.0868 8.74728C77.0868 9.23339 76.7004 9.58061 76.1684 9.58061C75.6364 9.58061 75.25 9.23339 75.25 8.74728H75.2528ZM79.03 11.8445H78.1242V10.7445L79.1084 10.6806L79.2904 8.96394H80.5308V10.6806H82.1464V11.8445H80.5308V14.8389C80.5308 15.5806 80.8136 15.9389 81.4226 15.9389C81.6438 15.9389 81.9014 15.8751 82.0834 15.8001L82.3424 16.8862C81.9924 17.0014 81.5528 17.1167 81.0488 17.1167C79.5746 17.1167 79.0328 16.1945 79.0328 14.8389V11.8445H79.03ZM88.7292 15.9139C89.6616 15.9139 90.23 15.0806 90.23 13.8278C90.23 12.5612 89.6616 11.7306 88.7292 11.7306C87.7982 11.7306 87.2452 12.5612 87.2452 13.8278C87.2452 15.082 87.7982 15.9139 88.7292 15.9139ZM88.7292 10.5251C90.3196 10.5251 91.756 11.7292 91.756 13.8278C91.756 15.9139 90.3196 17.1195 88.7292 17.1195C87.1514 17.1195 85.7192 15.9139 85.7192 13.8278C85.7192 11.7306 87.1514 10.5264 88.7292 10.5264M93.233 10.6806H94.4608L94.5644 11.5251H94.6148C95.1846 10.9751 95.8328 10.5251 96.698 10.5251C98.056 10.5251 98.6496 11.4348 98.6496 13.0223V16.9639H97.1628V13.2139C97.1628 12.1764 96.8688 11.7945 96.1688 11.7945C95.6116 11.7945 95.2504 12.0612 94.7184 12.5723V16.9639H93.2344V10.6806H93.233Z" fill="#E7E7E7"/>
</g>
<mask id="mask1_9_628" style="mask-type:luminance" maskUnits="userSpaceOnUse" x="51" y="7" width="106" height="39">
<path d="M51.5032 7.90283H156.422V45.1251H51.5032V7.90283Z" fill="white"/>
</mask>
<g mask="url(#mask1_9_628)">
<path fill-rule="evenodd" clip-rule="evenodd" d="M127.498 29.7529C126.442 29.7529 125.678 30.0445 125.206 30.6237C124.734 31.2015 124.492 32.1237 124.478 33.3876V33.7348C124.478 35.1709 124.72 36.1987 125.206 36.8209C125.689 37.4404 126.466 37.7515 127.537 37.7515C128.43 37.7515 129.133 37.3904 129.637 36.6751C130.145 35.9612 130.397 34.9723 130.397 33.714C130.397 32.439 130.145 31.4584 129.636 30.7765C129.132 30.0932 128.418 29.7515 127.497 29.7515M127.725 39.0473C127.05 39.0473 126.437 38.9251 125.88 38.6793C125.32 38.4311 124.836 38.0394 124.48 37.5445H124.363C124.44 38.1418 124.478 38.7084 124.478 39.2432V43.457H122.913V28.6251H124.187L124.403 30.0251H124.478C124.881 29.464 125.349 29.0626 125.887 28.8112C126.464 28.5544 127.092 28.4273 127.725 28.439C129.097 28.439 130.155 28.9015 130.903 29.8279C131.645 30.7557 132.017 32.0598 132.017 33.7348C132.017 35.4154 131.639 36.7209 130.883 37.6515C130.123 38.582 129.072 39.0473 127.725 39.0473ZM135.646 38.8612H134.078V24.3279H135.646V38.8612ZM141.114 37.7695C142.09 37.7695 142.857 37.5057 143.41 36.9779C143.968 36.4459 144.246 35.7043 144.246 34.7515V33.8307L142.678 33.8945C141.432 33.939 140.536 34.1307 139.987 34.4695C139.436 34.8084 139.161 35.339 139.161 36.0529C139.161 36.6126 139.329 37.039 139.675 37.3307C140.018 37.6251 140.497 37.7695 141.114 37.7695ZM144.651 38.8626L144.343 37.407H144.266C143.748 38.0501 143.234 38.4834 142.72 38.7084C142.209 38.9348 141.568 39.0487 140.802 39.0487C139.776 39.0487 138.972 38.7876 138.39 38.2654C137.808 37.7432 137.516 37.0015 137.516 36.0334C137.516 33.9668 139.185 32.8807 142.528 32.7834L144.283 32.7279V32.089C144.283 31.289 144.108 30.6945 143.758 30.3112C143.408 29.9293 142.848 29.7376 142.082 29.7376C141.221 29.7376 140.248 30.0015 139.16 30.5223L138.677 29.3348C139.187 29.0626 139.745 28.8487 140.351 28.6904C140.949 28.5367 141.563 28.4587 142.18 28.4584C143.412 28.4584 144.325 28.7279 144.92 29.2709C145.513 29.8126 145.811 30.6793 145.811 31.8751V38.8612H144.649L144.651 38.8626ZM146.723 28.6251H148.403L150.668 34.464C151.162 35.7973 151.473 36.7584 151.592 37.3501H151.666C151.75 37.0307 151.918 36.489 152.184 35.7182C152.443 34.9501 153.296 32.5834 154.742 28.6237H156.422L151.98 40.2807C151.537 41.4334 151.024 42.2501 150.434 42.7334C149.846 43.2168 149.124 43.4557 148.27 43.4557C147.791 43.4557 147.318 43.4001 146.853 43.2959V42.0529C147.199 42.1307 147.587 42.1668 148.015 42.1668C149.089 42.1668 149.856 41.5668 150.315 40.3751L150.895 38.9168L146.723 28.6209V28.6251ZM97.7984 35.014C98.2968 34.5195 98.3402 33.839 98.3402 33.4515C98.3402 31.9098 97.4092 29.5112 95.6144 29.5112C95.0516 29.5112 94.4454 29.7918 94.0996 30.2195C93.7314 30.6682 93.6236 31.2473 93.6236 31.8029C93.6236 33.2376 94.4692 35.6168 96.3284 35.6168C96.8768 35.6036 97.4007 35.3888 97.7984 35.014ZM97.1726 39.0834C97.0004 39.0612 96.8926 39.0612 96.677 39.0612C96.481 39.0612 95.312 39.1029 94.4048 39.4084C93.9288 39.5751 92.5428 40.0918 92.5428 41.6098C92.5428 43.1279 94.038 44.2209 96.3508 44.2209C98.4284 44.2209 99.5316 43.2376 99.5316 41.9098C99.5316 40.8154 98.8176 40.239 97.174 39.0834H97.1726ZM98.7084 29.5765C99.2082 29.982 100.244 30.8404 100.244 32.4654C100.244 34.0515 99.3342 34.8015 98.4284 35.507C98.1484 35.782 97.8208 36.0876 97.8208 36.5584C97.8208 37.0279 98.147 37.2848 98.385 37.4779L99.1648 38.0751C100.117 38.8709 100.981 39.5973 100.981 41.0751C100.981 43.089 99.0094 45.1237 95.291 45.1237C92.155 45.1237 90.643 43.6432 90.643 42.0598C90.643 41.2876 91.028 40.1987 92.309 39.4459C93.6474 38.632 95.466 38.5265 96.439 38.4598C96.1338 38.0765 95.7894 37.6682 95.7894 37.0084C95.7894 36.6404 95.8972 36.4251 96.005 36.1682C95.767 36.1904 95.529 36.2098 95.312 36.2098C93.0216 36.2098 91.7238 34.5182 91.7238 32.8487C91.7238 31.8654 92.1774 30.7723 93.107 29.9807C94.339 28.9751 95.809 28.8029 96.9808 28.8029H101.437L100.051 29.5737H98.7098L98.7084 29.5765ZM87.7884 37.0098C88.3064 36.3265 88.4366 35.4682 88.4366 34.6348C88.4366 32.7543 87.5336 29.1626 84.8526 29.1626C84.1414 29.1626 83.4288 29.4404 82.9108 29.8904C82.0708 30.6404 81.9168 31.5807 81.9168 32.5015C81.9168 34.6168 82.9752 38.1015 85.589 38.1015C86.429 38.1015 87.297 37.6945 87.7898 37.0112M85.092 38.7445C81.6592 38.7445 79.8238 36.0918 79.8238 33.6959C79.8238 30.8973 82.1338 28.5015 85.4168 28.5015C88.5906 28.5015 90.5786 30.9598 90.5786 33.5487C90.5786 36.0709 88.613 38.7432 85.0906 38.7432M76.0844 37.0098C76.6024 36.3265 76.7312 35.4682 76.7312 34.6348C76.7312 32.7543 75.824 29.1626 73.1472 29.1626C72.4332 29.1626 71.7192 29.4404 71.204 29.8904C70.3584 30.6404 70.21 31.5807 70.21 32.5015C70.21 34.6168 71.267 38.1015 73.8808 38.1015C74.7236 38.1015 75.586 37.6945 76.0844 37.0112M73.3852 38.7445C69.9496 38.7445 68.1128 36.0918 68.1128 33.6959C68.1128 30.8973 70.4256 28.5015 73.7086 28.5015C76.8838 28.5015 78.8704 30.9598 78.8704 33.5487C78.8704 36.0709 76.9062 38.7432 73.3866 38.7432M66.4622 38.407L63.3598 39.1154C62.0956 39.3098 60.9658 39.4793 59.7758 39.4793C53.7838 39.4793 51.5018 35.1182 51.5018 31.7015C51.5018 27.5307 54.7358 23.6626 60.2742 23.6626C61.3965 23.6646 62.5134 23.8159 63.595 24.1126C65.2246 24.5654 65.9848 25.1237 66.4608 25.4459L64.659 27.1432L63.9002 27.3154L64.4434 26.4543C63.7042 25.7459 62.3574 24.4348 59.7954 24.4348C56.3654 24.4348 53.7824 27.0182 53.7824 30.7779C53.7824 34.8168 56.7322 38.6223 61.4656 38.6223C62.8572 38.6223 63.5726 38.3404 64.2236 38.0834V34.6251L60.9476 34.7959L62.6836 33.8682H67.2868L66.7212 34.4098C66.5672 34.5376 66.5462 34.5793 66.5042 34.7529C66.4818 34.9445 66.4594 35.5695 66.4594 35.7807V38.4057L66.4622 38.407Z" fill="white"/>
</g>
<mask id="mask2_9_628" style="mask-type:luminance" maskUnits="userSpaceOnUse" x="51" y="7" width="106" height="39">
<path d="M51.5032 7.90283H156.422V45.1251H51.5032V7.90283Z" fill="white"/>
</mask>
<g mask="url(#mask2_9_628)">
<path fill-rule="evenodd" clip-rule="evenodd" d="M105.571 37.7874C104.854 37.7222 104.703 37.5958 104.703 36.7541V24.5902L104.717 24.4513C104.804 23.6986 105.02 23.5708 105.697 23.1819H102.589L100.96 23.9597H102.619V37.2263C102.619 37.6569 102.535 37.7222 102.033 38.3652H105.876L106.681 37.8972C106.312 37.8499 105.942 37.8305 105.573 37.786M112.379 31.6208C112.79 31.4736 113.004 31.343 113.004 31.0472C113.004 30.1944 112.034 29.2111 110.869 29.2111C110.005 29.2111 108.391 29.8736 108.391 32.1791C108.391 32.5402 108.433 32.9249 108.457 33.3083L112.377 31.6194L112.379 31.6208ZM114.409 37.9847C114.171 38.1097 113.933 38.2624 113.698 38.3666C112.984 38.6902 112.251 38.7736 111.602 38.7736C110.916 38.7736 109.836 38.7291 108.737 37.9402C107.205 36.8736 106.539 35.0374 106.539 33.4361C106.539 30.1263 109.257 28.5055 111.476 28.5055C112.252 28.5055 113.05 28.6999 113.7 29.1027C114.775 29.8069 115.055 30.7236 115.206 31.2166L110.141 33.2444L108.479 33.3736C109.018 36.0819 110.873 37.6624 112.921 37.6624C114.022 37.6624 114.82 37.2777 115.553 36.9166L114.411 37.9861L114.409 37.9847ZM116.488 28.6527V30.061H116.315V28.6527H115.844V28.5069H116.96V28.6527H116.488ZM118.427 30.061V28.6388H118.423L117.982 30.061H117.846L117.404 28.6402H117.4V30.0624H117.24V28.5069H117.51L117.911 29.7652H117.914L118.308 28.5083H118.58V30.0638H118.426L118.427 30.061Z" fill="white"/>
</g>
<defs>
<linearGradient id="paint0_linear_9_628" x1="400.501" y1="-527.48" x2="1017.43" y2="1554.25" gradientUnits="userSpaceOnUse">
<stop stop-color="#19A3B4"/>
<stop offset="0.34817" stop-color="#5BC3AF"/>
<stop offset="0.92234" stop-color="#C9F7A6"/>
<stop offset="1" stop-color="#D7FEA5"/>
</linearGradient>
<linearGradient id="paint1_linear_9_628" x1="-148.423" y1="-1073.07" x2="561.636" y2="1228.64" gradientUnits="userSpaceOnUse">
<stop stop-color="#FC227C"/>
<stop offset="1" stop-color="#FEEB7B"/>
</linearGradient>
<linearGradient id="paint2_linear_9_628" x1="470.518" y1="-441.659" x2="1511.72" y2="2260.26" gradientUnits="userSpaceOnUse">
<stop stop-color="#0E4DA0"/>
<stop offset="1" stop-color="#6BFED4"/>
</linearGradient>
<linearGradient id="paint3_linear_9_628" x1="2674.98" y1="277.312" x2="738.66" y2="2488.82" gradientUnits="userSpaceOnUse">
<stop stop-color="#FC472E"/>
<stop offset="0.00332" stop-color="#FC472E"/>
<stop offset="1" stop-color="#893CD8"/>
</linearGradient>
</defs>
</svg>

<svg xmlns="http://www.w3.org/2000/svg" width="168" height="50" fill="none" viewBox="0 0 168 50"><path fill="#151515" d="M163.8 0H4.2C1.88 0 0 1.865 0 4.167v41.666C0 48.135 1.88 50 4.2 50h159.6c2.32 0 4.2-1.865 4.2-4.167V4.167C168 1.865 166.12 0 163.8 0"/><path fill="url(#a)" d="M34.944 20.293 16.286 10.071c-.529-.288-1.016-.357-1.411-.232L30.156 25.06l4.788-4.77"/><path fill="url(#b)" fill-rule="evenodd" d="m34.968 29.858 6.37-3.489c1.29-.71 1.29-1.866 0-2.575l-6.394-3.5-4.788 4.77z" clip-rule="evenodd"/><path fill="url(#c)" d="M14.875 9.839c-.57.175-.938.75-.938 1.611l.006 27.258c0 .856.355 1.42.907 1.609l15.306-15.253z"/><path fill="url(#d)" d="M14.85 40.32c.398.133.896.069 1.436-.226l18.68-10.236-4.81-4.791z"/><path fill="#e7e7e7" fill-rule="evenodd" d="M57.36 8.44a3.44 3.44 0 0 1 2.52 1.063l-.825.92c-.426-.409-.892-.69-1.68-.69-1.501 0-2.51 1.152-2.51 3.032 0 1.909.905 3.061 2.6 3.061.465 0 .93-.127 1.203-.372V13.65h-1.593v-1.214h2.936v3.686c-.581.538-1.577.997-2.727.997-2.251 0-3.958-1.534-3.958-4.312 0-2.74 1.758-4.366 4.032-4.366m8.215 4.824c0-.997-.424-1.597-1.29-1.597-.751 0-1.398.548-1.527 1.597zm-1.33-2.736c1.72 0 2.625 1.226 2.625 2.98a3.3 3.3 0 0 1-.064.69h-4.035c.126 1.14.854 1.781 1.876 1.781.54 0 1.005-.166 1.47-.46l.504.92c-.606.396-1.368.678-2.17.678-1.76 0-3.13-1.216-3.13-3.29.002-2.05 1.437-3.3 2.924-3.3m4.074 1.317h-.903v-1.1l.983-.064.182-1.717h1.24v1.717h1.616v1.164h-1.616v2.994c0 .742.283 1.1.892 1.1.22 0 .479-.064.658-.139l.26 1.086c-.35.116-.79.23-1.293.23-1.474 0-2.016-.921-2.016-2.277v-2.994z" clip-rule="evenodd"/><mask id="e" width="106" height="39" x="51" y="7" maskUnits="userSpaceOnUse" style="mask-type:luminance"><path fill="#e7e7e7" d="M51.503 7.903h104.919v37.222H51.503z"/></mask><g mask="url(#e)"><path fill="#e7e7e7" fill-rule="evenodd" d="M75.42 10.68h1.488v6.284H75.42zm-.167-1.933c0-.5.388-.844.917-.844.532 0 .917.347.917.844 0 .486-.387.834-.919.834s-.918-.348-.918-.834zm3.777 3.098h-.906v-1.1l.984-.064.182-1.717h1.24v1.717h1.616v1.164h-1.615v2.994c0 .742.283 1.1.892 1.1.22 0 .478-.064.66-.139l.26 1.086c-.35.115-.79.23-1.294.23-1.474 0-2.016-.921-2.016-2.277v-2.995zm9.7 4.069c.932 0 1.5-.833 1.5-2.086 0-1.267-.568-2.097-1.5-2.097s-1.485.83-1.485 2.097c0 1.254.553 2.086 1.484 2.086m0-5.389c1.59 0 3.026 1.204 3.026 3.303 0 2.086-1.436 3.291-3.027 3.291-1.578 0-3.01-1.205-3.01-3.291 0-2.097 1.432-3.302 3.01-3.302m4.504.155h1.228l.103.844h.05c.57-.55 1.219-1 2.084-1 1.358 0 1.952.91 1.952 2.497v3.942h-1.487v-3.75c0-1.038-.294-1.42-.994-1.42-.557 0-.919.267-1.45.778v4.392h-1.485z" clip-rule="evenodd"/></g><mask id="g" width="106" height="39" x="51" y="7" maskUnits="userSpaceOnUse" style="mask-type:luminance"><use href="#f"/></mask><g mask="url(#g)"><path fill="#fff" fill-rule="evenodd" d="M127.498 29.753q-1.584 0-2.292.87-.708.867-.728 2.765v.347q0 2.154.728 3.086.724.93 2.331.93c.893 0 1.596-.36 2.1-1.076q.761-1.073.76-2.961.001-1.914-.761-2.937-.757-1.026-2.139-1.026m.228 9.296a4.5 4.5 0 0 1-1.845-.368 3.44 3.44 0 0 1-1.4-1.135h-.117q.115.897.115 1.7v4.213h-1.565V28.625h1.274l.216 1.4h.075c.403-.561.871-.962 1.409-1.214a4.3 4.3 0 0 1 1.838-.372q2.057 0 3.178 1.389 1.113 1.393 1.114 3.907 0 2.52-1.134 3.916-1.139 1.396-3.158 1.396m7.921-.186h-1.568V24.328h1.568zm5.468-1.091q1.465 0 2.296-.792.837-.798.836-2.227v-.92l-1.568.063q-1.868.068-2.691.575-.826.511-.826 1.584c0 .56.168.986.514 1.278q.514.44 1.439.438m3.537 1.093-.308-1.456h-.077q-.776.964-1.546 1.301-.768.34-1.918.34-1.539 0-2.412-.783-.873-.782-.874-2.232-.001-3.101 5.012-3.25l1.755-.055v-.639q0-1.201-.525-1.778-.526-.573-1.676-.573c-.861 0-1.834.264-2.922.784l-.483-1.187a7.6 7.6 0 0 1 1.674-.645 7.4 7.4 0 0 1 1.829-.232q1.848 0 2.74.813.89.812.891 2.604v6.986h-1.162zm2.072-10.238h1.68l2.265 5.839c.494 1.333.805 2.294.924 2.886h.074c.084-.32.252-.861.518-1.632q.389-1.154 2.558-7.094h1.68L151.98 40.28q-.663 1.729-1.546 2.452-.882.725-2.164.723-.719-.002-1.417-.16v-1.243q.52.116 1.162.114c1.074 0 1.841-.6 2.3-1.792l.58-1.458-4.172-10.296zm-48.925 6.389c.499-.495.542-1.175.542-1.562 0-1.542-.93-3.94-2.726-3.94-.562 0-1.169.28-1.514.707-.369.45-.476 1.028-.476 1.584 0 1.435.845 3.814 2.704 3.814a2.22 2.22 0 0 0 1.47-.603m-.625 4.07c-.173-.023-.28-.023-.496-.023-.196 0-1.365.042-2.272.347-.476.167-1.862.684-1.862 2.202s1.495 2.61 3.808 2.61c2.077 0 3.18-.982 3.18-2.31 0-1.095-.713-1.671-2.357-2.827zm1.535-9.508c.5.406 1.536 1.264 1.536 2.89 0 1.585-.91 2.335-1.816 3.041-.28.275-.607.58-.607 1.051 0 .47.326.727.564.92l.78.597c.952.796 1.816 1.522 1.816 3 0 2.014-1.972 4.049-5.69 4.049-3.136 0-4.648-1.48-4.648-3.064 0-.772.385-1.861 1.666-2.614 1.338-.814 3.157-.92 4.13-.986-.305-.383-.65-.792-.65-1.452 0-.368.108-.583.216-.84a8 8 0 0 1-.693.042c-2.29 0-3.588-1.692-3.588-3.361 0-.984.453-2.077 1.383-2.868 1.232-1.006 2.702-1.178 3.874-1.178h4.456l-1.386.77H98.71zm-10.92 7.434c.518-.683.649-1.542.649-2.375 0-1.88-.903-5.472-3.584-5.472a3.02 3.02 0 0 0-1.942.727c-.84.75-.994 1.69-.994 2.611 0 2.116 1.058 5.6 3.672 5.6.84 0 1.708-.407 2.2-1.09m-2.697 1.733c-3.433 0-5.268-2.652-5.268-5.048 0-2.799 2.31-5.194 5.593-5.194 3.174 0 5.162 2.458 5.162 5.047 0 2.522-1.966 5.194-5.488 5.194m-9.007-1.733c.518-.683.647-1.542.647-2.375 0-1.88-.907-5.472-3.584-5.472-.714 0-1.428.277-1.943.727-.846.75-.994 1.69-.994 2.611 0 2.116 1.057 5.6 3.67 5.6.844 0 1.706-.407 2.204-1.09m-2.699 1.733c-3.435 0-5.272-2.652-5.272-5.048 0-2.799 2.313-5.194 5.596-5.194 3.175 0 5.161 2.458 5.161 5.047 0 2.522-1.964 5.194-5.483 5.194m-6.925-.336-3.102.708c-1.264.195-2.394.364-3.584.364-5.992 0-8.274-4.36-8.274-7.777 0-4.171 3.234-8.04 8.772-8.04 1.123.003 2.24.154 3.321.45 1.63.453 2.39 1.012 2.866 1.334l-1.802 1.697-.759.172.543-.86c-.739-.71-2.086-2.02-4.648-2.02-3.43 0-6.013 2.583-6.013 6.343 0 4.039 2.95 7.844 7.684 7.844 1.391 0 2.107-.282 2.758-.539v-3.458l-3.276.17 1.736-.927h4.603l-.566.542c-.154.128-.175.17-.217.343-.022.191-.045.816-.045 1.028v2.625z" clip-rule="evenodd"/></g><mask id="h" width="106" height="39" x="51" y="7" maskUnits="userSpaceOnUse" style="mask-type:luminance"><use href="#f"/></mask><g mask="url(#h)"><path fill="#fff" fill-rule="evenodd" d="M105.571 37.787c-.717-.065-.868-.191-.868-1.033V24.59l.014-.139c.087-.752.303-.88.98-1.27h-3.108l-1.629.779h1.659v13.266c0 .43-.084.496-.586 1.14h3.843l.805-.469c-.369-.047-.739-.066-1.108-.111m6.806-6.165c.411-.147.625-.278.625-.574 0-.853-.97-1.836-2.135-1.836-.864 0-2.478.663-2.478 2.968 0 .361.042.746.066 1.13l3.92-1.69zm2.03 6.364c-.238.125-.476.277-.711.382-.714.323-1.447.407-2.096.407-.686 0-1.766-.045-2.865-.834-1.532-1.066-2.198-2.903-2.198-4.504 0-3.31 2.718-4.93 4.937-4.93.776 0 1.574.194 2.224.597 1.075.704 1.355 1.62 1.506 2.114l-5.065 2.027-1.662.13c.539 2.708 2.394 4.288 4.442 4.288 1.101 0 1.899-.384 2.632-.745l-1.142 1.07zm2.079-9.332v1.408h-.173v-1.408h-.471v-.146h1.116v.146zm1.939 1.408v-1.422h-.004l-.441 1.422h-.136l-.442-1.42h-.004v1.421h-.16v-1.555h.27l.401 1.258h.003l.394-1.257h.272v1.556h-.154z" clip-rule="evenodd"/></g><defs><linearGradient id="a" x1="400.501" x2="1017.43" y1="-527.48" y2="1554.25" gradientUnits="userSpaceOnUse"><stop stop-color="#19a3b4"/><stop offset=".348" stop-color="#5bc3af"/><stop offset=".922" stop-color="#c9f7a6"/><stop offset="1" stop-color="#d7fea5"/></linearGradient><linearGradient id="b" x1="-148.423" x2="561.636" y1="-1073.07" y2="1228.64" gradientUnits="userSpaceOnUse"><stop stop-color="#fc227c"/><stop offset="1" stop-color="#feeb7b"/></linearGradient><linearGradient id="c" x1="470.518" x2="1511.72" y1="-441.659" y2="2260.26" gradientUnits="userSpaceOnUse"><stop stop-color="#0e4da0"/><stop offset="1" stop-color="#6bfed4"/></linearGradient><linearGradient id="d" x1="2674.98" x2="738.66" y1="277.312" y2="2488.82" gradientUnits="userSpaceOnUse"><stop stop-color="#fc472e"/><stop offset=".003" stop-color="#fc472e"/><stop offset="1" stop-color="#893cd8"/></linearGradient><path id="f" fill="#fff" d="M51.503 7.903h104.919v37.222H51.503z"/></defs></svg>
